X:23
T: Brakken hir Geeá huet den Dekkel geschannt, S. 23
N: R0047
O: Luxemburg
S: D'Fraen um Kanddaaf an der aler Zeit, Luxemburg 1929]
R: ??]
M: 6/8
L: 1/16
K: G
 | G4GGB4GG | d2d2d2d6 | B4GGG6
G4GGB4G2 | d2d2d2d6 | B4GGG6
E4E2G3EEE | E4D2c6 | E4E2E6
F4E2D4c2 | B4A2G6 | D2E2F2B6

